X:1
T:Title
%%score { ( 1 3 4 ) | ( 2 5 ) }
L:1/8
M:4/4
K:Ab
V:1 treble nm="Grand Piano"
V:3 treble 
V:4 treble 
V:2 bass 
V:5 bass 
V:1
 z4 z2[Q:1/4=100] [CE]2 | A4 z4 | c4 z4 | c3 e d2 c2 |[M:3/4] B6 |[M:1/4] c2 | %6
[M:4/4] d2 cB [Ec]2 [A,EA]2 | [DEG]2 [CEA]2 [B,EB]2 [Ec]2 | [EB]3 [G,E] [B,=DG]2 [A,DF]2 | %9
[M:3/4] [G,E]6 |[M:1/4] [G,E]2 |[M:4/4] [A,EA]3 [DEG] [CEA]2 B2 | c3 B [CA]2 B2 | c3 B c2 [A=d]2 | %14
[M:3/4] [Ge]6 |[M:1/4] d2 |[M:4/4] z2 .d2 z4 | z2 .B2 z4 | [FB]3 [Fd] [Ec]2 [DB]2 |[M:3/4] [CA]6 |] %20
V:2
 z4 z2 [A,,A,]2 | E,3 E, C,2 [E,G,E]2 | [A,E]3 [G,D] [A,,A,]2 [E,G,E]2 | %3
 [A,E]3 [A,CE] [G,B,E]2 [A,E]2 |[M:3/4] [E,G,E]6 |[M:1/4] [A,E]2 | %6
[M:4/4] [G,B,E]2 [E,G,E]2 A,2 C,2 | B,,2 A,,2 G,,2 [A,,A,]2 | [B,,G,]3 B,, B,,2 B,,2 |[M:3/4] E,6 | %10
[M:1/4] D,2 |[M:4/4] C,3 B,, A,,2 [E,G,E]2 | [A,E]3 [E,G,D] [A,,A,]2 [E,G,E]2 | %13
 [A,E]3 [G,B,E] [A,E]2 [F,B,]2 |[M:3/4] [E,B,]6 |[M:1/4] [G,B,E]2 | %16
[M:4/4] [A,E]2 [D,A,]2 [E,G,D]2 [=E,G,C]2 | [F,C]2 [=D,B,]2 [E,B,E]2 [C,A,]2 | %18
 [D,A,]3 [B,,A,] [E,A,]2 [E,G,]2 |[M:3/4] [A,,A,]6 |] %20
V:3
 x8 | C2 z G [A,EA]2 B2 | z2 z B [CA]2 B2 | x8 |[M:3/4] x6 |[M:1/4] x2 |[M:4/4] x8 | x8 | x8 | %9
[M:3/4] x6 |[M:1/4] x2 |[M:4/4] x8 | x8 | x8 |[M:3/4] x6 |[M:1/4] x2 |[M:4/4] c2 F-[Fc] B2 cB | %17
 A2 F-[FA] G2 [EA]2 | x8 |[M:3/4] x6 |] %20
V:4
 x8 | z2 D2 z4 | z2 E,2 z4 | x8 |[M:3/4] x6 |[M:1/4] x2 |[M:4/4] x8 | x8 | x8 |[M:3/4] x6 | %10
[M:1/4] x2 |[M:4/4] x8 | x8 | x8 |[M:3/4] x6 |[M:1/4] x2 |[M:4/4] x8 | x8 | x8 |[M:3/4] x6 |] %20
V:5
 x8 | A,,2 B,,2 z4 | x8 | x8 |[M:3/4] x6 |[M:1/4] x2 |[M:4/4] x8 | x8 | x8 |[M:3/4] x6 | %10
[M:1/4] x2 |[M:4/4] x8 | x8 | x8 |[M:3/4] x6 |[M:1/4] x2 |[M:4/4] x8 | x8 | x8 |[M:3/4] x6 |] %20

